X: 1
T: Sull Sull (Hansen's Masurka)
O: Westland
R: mazurka
Z: John Chambers <jc@trillian.mit.edu>
M: 3/4
L: 1/8
K: D
|: "D"D2 F<D F>d | c>B A3 F | D2 F<D F>d | "Em"c>B G3 F | G2 B<G B>d |
| "G"c2 B4 |1,3 G2 B<G B>d | "A7"c>B AG FE :|2,4 "A7"cB Ac fe | "D"d2 d4 :|
|: "D"D>F A2 FA | d>e f2 d2 |1,3 "A7"A>c ed cB | "D"A>d f2 d2 :|2,4 "A7"cB g2 Bc | "D"d2 d4 :|
